styles/5/Numix/48/places/purple-folder-download.svg

<?xml version="1.0" encoding="UTF-8" standalone="no"?>
<!-- Created with Inkscape (http://www.inkscape.org/) -->

<svg
   xmlns:dc="http://purl.org/dc/elements/1.1/"
   xmlns:cc="http://creativecommons.org/ns#"
   xmlns:rdf="http://www.w3.org/1999/02/22-rdf-syntax-ns#"
   xmlns:svg="http://www.w3.org/2000/svg"
   xmlns="http://www.w3.org/2000/svg"
   xmlns:xlink="http://www.w3.org/1999/xlink"
   xmlns:sodipodi="http://sodipodi.sourceforge.net/DTD/sodipodi-0.dtd"
   xmlns:inkscape="http://www.inkscape.org/namespaces/inkscape"
   width="48"
   height="48"
   id="svg2"
   version="1.1"
   inkscape:version="0.91 r"
   sodipodi:docname="purple-folder-download.svg">
  <defs
     id="defs4">
    <linearGradient
       id="linearGradient3886">
      <stop
         style="stop-color:#000000;stop-opacity:1;"
         offset="0"
         id="stop3888" />
      <stop
         style="stop-color:#000000;stop-opacity:0.19607843;"
         offset="1"
         id="stop3890" />
    </linearGradient>
    <radialGradient
       r="24"
       fy="40.5"
       fx="24"
       cy="40.5"
       cx="24"
       gradientTransform="matrix(1.25,0,0,0.20833327,-6,1035.9247)"
       gradientUnits="userSpaceOnUse"
       id="radialGradient3036"
       xlink:href="#linearGradient3886"
       inkscape:collect="always" />
  </defs>
  <sodipodi:namedview
     id="base"
     pagecolor="#ffffff"
     bordercolor="#666666"
     borderopacity="1.0"
     inkscape:pageopacity="0.0"
     inkscape:pageshadow="2"
     inkscape:zoom="17.627784"
     inkscape:cx="18.477674"
     inkscape:cy="16.048214"
     inkscape:document-units="px"
     inkscape:current-layer="layer1"
     showgrid="true"
     inkscape:window-width="1280"
     inkscape:window-height="998"
     inkscape:window-x="0"
     inkscape:window-y="0"
     inkscape:window-maximized="1">
    <inkscape:grid
       type="xygrid"
       id="grid2990"
       empspacing="5"
       visible="true"
       enabled="true"
       snapvisiblegridlinesonly="true" />
  </sodipodi:namedview>
  <metadata
     id="metadata7">
    <rdf:RDF>
      <cc:Work
         rdf:about="">
        <dc:format>image/svg+xml</dc:format>
        <dc:type
           rdf:resource="http://purl.org/dc/dcmitype/StillImage" />
        <dc:title />
      </cc:Work>
    </rdf:RDF>
  </metadata>
  <g
     inkscape:label="Body"
     inkscape:groupmode="layer"
     id="layer1"
     transform="translate(0,-1004.3622)">
    <path
       inkscape:connector-curvature="0"
       style="opacity:0.1;fill:url(#radialGradient3036);fill-opacity:1;stroke:none"
       d="m 24,1039.3622 c -9.826549,0 -18.52797,0.7831 -24,2 l 0,6 c 5.47203,1.2169 14.173451,2 24,2 9.826549,0 18.52797,-0.7831 24,-2 l 0,-6 c -5.47203,-1.2169 -14.173451,-2 -24,-2 z"
       id="path3868" />
    <rect
       style="fill:#512da8;fill-opacity:1;stroke:none"
       id="rect2987"
       width="46"
       height="32.000019"
       x="1"
       y="1014.3622"
       rx="5"
       ry="5" />
    <path
       style="opacity:0.2;fill:#ffffff;fill-opacity:1;stroke:none"
       d="m 6,1014.3622 c -2.77,0 -5,2.23 -5,5 l 0,2 c 0,-2.77 2.23,-5 5,-5 l 36,0 c 2.77,0 5,2.23 5,5 l 0,-2 c 0,-2.77 -2.23,-5 -5,-5 l -36,0 z"
       id="rect3797"
       inkscape:connector-curvature="0" />
    <path
       style="fill:#7e57c2;fill-opacity:1;stroke:none"
       d="m 6,1022.3622 8,0 c 11,-1 9,-12 16,-12 l 12,0 c 2.77,0 5,2.23 5,5 l 0,26 c 0,2.77 -2.23,5 -5,5 l -36,0 c -2.77,0 -5,-2.23 -5,-5 l 0,-14 c 0,-3 2,-5 5,-5 z"
       id="rect3776"
       inkscape:connector-curvature="0"
       sodipodi:nodetypes="cccsssssscc" />
    <path
       style="opacity:0.15;fill:#000000;fill-opacity:1;stroke:none"
       d="m 1,1039.3622 0,2 c 0,2.77 2.23,5 5,5 l 36,0 c 2.77,0 5,-2.23 5,-5 l 0,-2 c 0,2.77 -2.23,5 -5,5 l -36,0 c -2.77,0 -5,-2.23 -5,-5 z"
       id="path3786"
       inkscape:connector-curvature="0" />
    <g
       id="g3907"
       style="fill:#fff8e1;fill-opacity:1"
       transform="translate(-83.5,11.000015)">
      <path
         transform="matrix(1.3714939,0,0,1.4355586,17.857469,1027.0066)"
         d="m -4.9999999,8.2585173 c 0,0.9617941 -0.8161087,1.7414823 -1.8228298,1.7414823 -1.0067211,0 -1.8228299,-0.7796882 -1.8228299,-1.7414823 0,-0.9617942 0.8161088,-1.7414824 1.8228299,-1.7414824 1.0067211,0 1.8228298,0.7796882 1.8228298,1.7414824 z"
         sodipodi:ry="1.7414824"
         sodipodi:rx="1.8228298"
         sodipodi:cy="8.2585173"
         sodipodi:cx="-6.8228297"
         id="path3001"
         style="fill:#fff8e1;fill-opacity:1;stroke:none"
         sodipodi:type="arc" />
      <path
         sodipodi:type="arc"
         style="fill:#fff8e1;fill-opacity:1;stroke:none"
         id="path3003"
         sodipodi:cx="-6.8228297"
         sodipodi:cy="8.2585173"
         sodipodi:rx="1.8228298"
         sodipodi:ry="1.7414824"
         d="m -4.9999999,8.2585173 c 0,0.9617941 -0.8161087,1.7414823 -1.8228298,1.7414823 -1.0067211,0 -1.8228299,-0.7796882 -1.8228299,-1.7414823 0,-0.9617942 0.8161088,-1.7414824 1.8228299,-1.7414824 1.0067211,0 1.8228298,0.7796882 1.8228298,1.7414824 z"
         transform="matrix(1.3714939,0,0,1.4355586,25.857469,1027.0066)" />
      <rect
         ry="1"
         rx="1"
         y="1028.3622"
         x="9"
         height="11.000017"
         width="2"
         id="rect3005"
         style="fill:#fff8e1;fill-opacity:1;stroke:none" />
      <rect
         style="fill:#fff8e1;fill-opacity:1;stroke:none"
         id="rect3007"
         width="2"
         height="11.000017"
         x="17"
         y="1028.3622"
         rx="0.9764151"
         ry="1" />
      <rect
         ry="1.9999913"
         rx="2"
         y="1027.3622"
         x="9"
         height="4.0000172"
         width="10"
         id="rect3009"
         style="fill:#fff8e1;fill-opacity:1;stroke:none" />
    </g>
    <path
       style="fill:#000000;fill-opacity:0.09411765;stroke:none"
       d="M 14 23 C 12.892 23 12 23.892 12 25 L 12 28 L 10 28 C 9.25 28 9.25 28 10 28.75 L 13.25 33 C 14 33.75 14 33.75 14.75 33 L 18 28.75 C 18.75 28 18.75 28 18 28 L 16 28 L 16 25 C 16 23.892 15.108 23 14 23 z M 8 30 C 7.446 30 7 30.446 7 31 L 7 36 C 7 36.287654 7.1122273 36.536645 7.28125 36.71875 C 7.4377525 36.887366 7.6419471 37 7.875 37 L 8 37 L 20 37 L 20.125 37 C 20.358053 37 20.562247 36.887366 20.71875 36.71875 C 20.887773 36.536645 21 36.287654 21 36 L 21 31 C 21 30.446 20.554 30 20 30 C 19.446 30 19 30.446 19 31 L 19 35 L 9 35 L 9 31 C 9 30.446 8.554 30 8 30 z "
       transform="translate(0,1004.3622)"
       id="rect4198" />
    <g
       id="g4195">
      <rect
         ry="1"
         rx="0.875"
         y="1038.3622"
         x="7"
         height="2"
         width="14"
         id="rect2989"
         style="fill:#fff8e1;fill-opacity:1;stroke:none" />
      <rect
         transform="matrix(0,1,-1,0,0,0)"
         style="fill:#fff8e1;fill-opacity:1;stroke:none"
         id="rect2991-6"
         width="7"
         height="2"
         x="1033.3622"
         y="-9"
         rx="1"
         ry="1" />
      <rect
         ry="1"
         rx="1"
         y="-21"
         x="1033.3622"
         height="2"
         width="7"
         id="rect2993"
         style="fill:#fff8e1;fill-opacity:1;stroke:none"
         transform="matrix(0,1,-1,0,0,0)" />
      <path
         sodipodi:nodetypes="ccccccc"
         inkscape:connector-curvature="0"
         id="path2997-6"
         d="m 14.75,1036.3617 c -0.75,0.75 -0.75,0.75 -1.5,0 L 10,1032.1112 c -0.75,-0.75 -0.75,-0.75 0,-0.75 l 8,0 c 0.75,0 0.75,0 0,0.75 z"
         style="fill:#fff8e1;fill-opacity:1;stroke:none" />
      <path
         inkscape:connector-curvature="0"
         id="rect2995"
         d="m 14,1026.3622 c -1.108,0 -2,0.892 -2,2 l 0,5 4,0 0,-5 c 0,-1.108 -0.892,-2 -2,-2 z"
         style="fill:#fff8e1;fill-opacity:1;stroke:none" />
    </g>
  </g>
</svg>

<!-- Created with Inkscape (http://www.inkscape.org/) -->
<svg xmlns="http://www.w3.org/2000/svg" viewBox="0 0 48 48">
 <defs>
  <radialGradient r="24" cy="40.5" cx="24" gradientTransform="matrix(1.25,0,0,0.20833327,-6,1035.9247)" gradientUnits="userSpaceOnUse" id="radialGradient3036">
   <stop style="stop-color:#000;stop-opacity:1"/>
   <stop offset="1" style="stop-color:#000;stop-opacity:0.196"/>
  </radialGradient>
 </defs>
 <g transform="translate(0,-1004.3622)">
  <path d="m 24 1039.36 c -9.827 0 -18.528 0.783 -24 2 l 0 6 c 5.472 1.217 14.173 2 24 2 9.827 0 18.528 -0.783 24 -2 l 0 -6 c -5.472 -1.217 -14.173 -2 -24 -2 z" style="fill:url(#radialGradient3036);opacity:0.1;fill-opacity:1;stroke:none"/>
  <rect width="46" height="32" x="1" y="1014.36" rx="5" style="fill:#512da8;fill-opacity:1;stroke:none"/>
  <path d="m 6 1014.36 c -2.77 0 -5 2.23 -5 5 l 0 2 c 0 -2.77 2.23 -5 5 -5 l 36 0 c 2.77 0 5 2.23 5 5 l 0 -2 c 0 -2.77 -2.23 -5 -5 -5 l -36 0 z" style="fill:#fff;opacity:0.2;fill-opacity:1;stroke:none"/>
  <path d="m 6 1022.36 8 0 c 11 -1 9 -12 16 -12 l 12 0 c 2.77 0 5 2.23 5 5 l 0 26 c 0 2.77 -2.23 5 -5 5 l -36 0 c -2.77 0 -5 -2.23 -5 -5 l 0 -14 c 0 -3 2 -5 5 -5 z" style="fill:#7e57c2;fill-opacity:1;stroke:none"/>
  <path d="m 1 1039.36 0 2 c 0 2.77 2.23 5 5 5 l 36 0 c 2.77 0 5 -2.23 5 -5 l 0 -2 c 0 2.77 -2.23 5 -5 5 l -36 0 c -2.77 0 -5 -2.23 -5 -5 z" style="fill:#000;opacity:0.15;fill-opacity:1;stroke:none"/>
  <g transform="translate(-83.5,11.000015)" style="fill:#fff8e1;fill-opacity:1"/>
  <path d="m 14 23 c -1.108 0 -2 0.892 -2 2 l 0 3 l -2 0 c -0.75 0 -0.75 0 0 0.75 l 3.25 4.25 c 0.75 0.75 0.75 0.75 1.5 0 l 3.25 -4.25 c 0.75 -0.75 0.75 -0.75 0 -0.75 l -2 0 l 0 -3 c 0 -1.108 -0.892 -2 -2 -2 z m -6 7 c -0.554 0 -1 0.446 -1 1 l 0 5 c 0 0.288 0.112 0.537 0.281 0.719 c 0.157 0.169 0.361 0.281 0.594 0.281 l 0.125 0 l 12 0 l 0.125 0 c 0.233 0 0.437 -0.113 0.594 -0.281 c 0.169 -0.182 0.281 -0.431 0.281 -0.719 l 0 -5 c 0 -0.554 -0.446 -1 -1 -1 c -0.554 0 -1 0.446 -1 1 l 0 4 l -10 0 l 0 -4 c 0 -0.554 -0.446 -1 -1 -1 z" transform="translate(0,1004.3622)" style="fill:#000;fill-opacity:0.094;stroke:none"/>
  <g>
   <rect ry="1" rx="0.875" y="1038.36" x="7" height="2" width="14" style="fill:#fff8e1;fill-opacity:1;stroke:none"/>
   <rect transform="matrix(0,1,-1,0,0,0)" width="7" height="2" x="1033.36" y="-9" rx="1" style="fill:#fff8e1;fill-opacity:1;stroke:none"/>
   <rect rx="1" y="-21" x="1033.36" height="2" width="7" transform="matrix(0,1,-1,0,0,0)" style="fill:#fff8e1;fill-opacity:1;stroke:none"/>
   <path d="m 14.75 1036.36 c -0.75 0.75 -0.75 0.75 -1.5 0 l -3.25 -4.25 c -0.75 -0.75 -0.75 -0.75 0 -0.75 l 8 0 c 0.75 0 0.75 0 0 0.75 z" style="fill:#fff8e1;fill-opacity:1;stroke:none"/>
   <path d="m 14 1026.36 c -1.108 0 -2 0.892 -2 2 l 0 5 4 0 0 -5 c 0 -1.108 -0.892 -2 -2 -2 z" style="fill:#fff8e1;fill-opacity:1;stroke:none"/>
  </g>
 </g>
</svg>
